X:15
T:Funasdalingen (pols)
R:Rorospols
Z:2002 Brian Wilson <baab@mediaone.net>
M:3/4
L:1/8
K:A
E
||: "A"A2 Ac Ac | "A"e2 ae cc | "E"cB/c/ dB GB | "A"BA Ac E2
|   "A"A2 Ac Ac | "A"e2 ae cc | "E"cB/c/ dB GB | "A"BA A4 :|
|: "D"Ad f2 f>f | "A"fe e4 | "D"Ec d2 d>d | "A"dc c4
|  "D"Ad f2 f>f | "A"fe e3 a | "E"gf ed BG/B/| "A"A2 A4 :||
